svg/help_box_outline.svg

<svg xmlns="http://www.w3.org/2000/svg" viewBox="0 0 24 24"><path d="M11 18h2v-2h-2zm1-12c-2.2 0-4 1.8-4 4h2c0-1.1.9-2 2-2s2 .9 2 2c0 2-3 1.8-3 5h2c0-2.2 3-2.5 3-5 0-2.2-1.8-4-4-4m7-1v14H5V5zm0-2H5c-1.1 0-2 .9-2 2v14c0 1.1.9 2 2 2h14c1.1 0 2-.9 2-2V5c0-1.1-.9-2-2-2"/></svg>

<svg xmlns="http://www.w3.org/2000/svg" id="mdi-help-box-outline" viewBox="0 0 24 24"><path d="M11 18H13V16H11V18M12 6C9.8 6 8 7.8 8 10H10C10 8.9 10.9 8 12 8S14 8.9 14 10C14 12 11 11.8 11 15H13C13 12.8 16 12.5 16 10C16 7.8 14.2 6 12 6M19 5V19H5V5H19M19 3H5C3.9 3 3 3.9 3 5V19C3 20.1 3.9 21 5 21H19C20.1 21 21 20.1 21 19V5C21 3.9 20.1 3 19 3Z" /></svg>
